X: 102
T:Golden Keyboard, The
C:Martin Mulhaire
M:C|
L:1/8
R:Reel
K:EDor
BGEF GFGA|(3BBB gB fBed|BGEF GBAG|(3FED AD BDAF|!
EDEF GFGA|(3BBB gB fBec|d2ce dBAF|DFAF GEE2:|!
|:Be~e2 Be~e2|Beef edBe|dA~A2 eAce|d2ce dBAF|!
EDEF GFGA|(3BBB gB fBec|d2ce dBAF|DFAF GEE2:|]!
